icon/cg/push-chevron-left-o.svg

<svg viewBox="0 0 24 24" fill="none" xmlns="http://www.w3.org/2000/svg" height="1em" width="1em">
  <path d="M10 16H8V8H10V16Z" fill="currentColor"/>
  <path d="M15.2974 7.75732L16.7116 9.17153L13.8832 12L16.7116 14.8284L15.2974 16.2426L11.0547 11.9999L15.2974 7.75732Z" fill="currentColor"/>
  <path fill-rule="evenodd" clip-rule="evenodd" d="M1 12C1 18.0751 5.92487 23 12 23C18.0751 23 23 18.0751 23 12C23 5.92487 18.0751 1 12 1C5.92487 1 1 5.92487 1 12ZM3 12C3 16.9706 7.02944 21 12 21C16.9706 21 21 16.9706 21 12C21 7.02944 16.9706 3 12 3C7.02944 3 3 7.02944 3 12Z" fill="currentColor"/>
</svg>

<svg width="24" height="24" fill="none" xmlns="http://www.w3.org/2000/svg"><path d="M10 16H8V8h2v8ZM15.297 7.757l1.415 1.415L13.883 12l2.829 2.828-1.415 1.415L11.055 12l4.242-4.243Z" fill="currentColor"/><path fill-rule="evenodd" clip-rule="evenodd" d="M1 12c0 6.075 4.925 11 11 11s11-4.925 11-11S18.075 1 12 1 1 5.925 1 12Zm2 0a9 9 0 1 0 18 0 9 9 0 0 0-18 0Z" fill="currentColor"/></svg>
